svgs/sharp-regular/user-hair-long.svg

<svg xmlns="http://www.w3.org/2000/svg" viewBox="0 0 448 512"><!--! Font Awesome Pro 6.6.0 by @fontawesome - https://fontawesome.com License - https://fontawesome.com/license (Commercial License) Copyright 2024 Fonticons, Inc. --><path d="M304 144c0 44.2-35.8 80-80 80s-80-35.8-80-80l0-16c0-5.5 .6-10.8 1.6-16l62.4 0 32-32 16 16 41.3 0c4.3 9.8 6.7 20.6 6.7 32l0 16zM224 0C153.3 0 96 57.3 96 128l0 16 0 48L48 240l0 32 176 0 176 0 0-32-48-48 0-48 0-16C352 57.3 294.7 0 224 0zM66.6 464l32-96 250.8 0 32 96L66.6 464zM64 320L16 464 0 512l50.6 0 346.8 0 50.6 0-16-48L384 320 64 320z"/></svg>

<svg xmlns="http://www.w3.org/2000/svg" viewBox="0 0 448 512"><!--! Font Awesome Pro 6.4.2 by @fontawesome - https://fontawesome.com License - https://fontawesome.com/license (Commercial License) Copyright 2023 Fonticons, Inc. --><path d="M304 144c0 44.2-35.8 80-80 80s-80-35.8-80-80V128c0-5.5 .6-10.8 1.6-16H208l32-32 16 16h41.3c4.3 9.8 6.7 20.6 6.7 32v16zM224 0C153.3 0 96 57.3 96 128v16 48L48 240v32H224 400V240l-48-48V144 128C352 57.3 294.7 0 224 0zM66.6 464l32-96H349.4l32 96H66.6zM64 320L16 464 0 512H50.6 397.4 448l-16-48L384 320H64z"/></svg>
